assets/icons8-menu.svg

<svg xmlns="http://www.w3.org/2000/svg"  viewBox="0 0 50 50" width="50px" height="50px"><path d="M 3 8 A 2.0002 2.0002 0 1 0 3 12 L 47 12 A 2.0002 2.0002 0 1 0 47 8 L 3 8 z M 3 23 A 2.0002 2.0002 0 1 0 3 27 L 47 27 A 2.0002 2.0002 0 1 0 47 23 L 3 23 z M 3 38 A 2.0002 2.0002 0 1 0 3 42 L 47 42 A 2.0002 2.0002 0 1 0 47 38 L 3 38 z"/></svg>

<svg xmlns="http://www.w3.org/2000/svg" width="50" height="50"><path d="M3 8a2 2 0 1 0 0 4h44a2 2 0 1 0 0-4H3zm0 15a2 2 0 1 0 0 4h44a2 2 0 1 0 0-4H3zm0 15a2 2 0 1 0 0 4h44a2 2 0 1 0 0-4H3z"/></svg>
